images/svg/file-text.svg

<?xml version="1.0" encoding="utf-8"?>
<!-- Generated by IcoMoon.io -->
<!DOCTYPE svg PUBLIC "-//W3C//DTD SVG 1.1//EN" "http://www.w3.org/Graphics/SVG/1.1/DTD/svg11.dtd">
<svg version="1.1" xmlns="http://www.w3.org/2000/svg" xmlns:xlink="http://www.w3.org/1999/xlink" width="48" height="48" viewBox="0 0 48 48">
<path fill="#484848" d="M43.022 10.738c-1.041-1.42-2.493-3.080-4.086-4.674s-3.254-3.045-4.674-4.086c-2.418-1.773-3.59-1.978-4.262-1.978h-23.25c-2.068 0-3.75 1.682-3.75 3.75v40.5c0 2.068 1.682 3.75 3.75 3.75h34.5c2.068 0 3.75-1.682 3.75-3.75v-29.25c0-0.672-0.205-1.845-1.978-4.262zM36.814 8.186c1.439 1.439 2.569 2.737 3.402 3.814h-7.217v-7.216c1.077 0.833 2.376 1.963 3.814 3.402zM42 44.25c0 0.407-0.343 0.75-0.75 0.75h-34.5c-0.406 0-0.75-0.343-0.75-0.75v-40.5c0-0.406 0.344-0.75 0.75-0.75 0 0 23.248-0 23.25 0v10.5c0 0.828 0.672 1.5 1.5 1.5h10.5v29.25z"></path>
<path fill="#484848" d="M34.5 39h-21c-0.828 0-1.5-0.672-1.5-1.5s0.672-1.5 1.5-1.5h21c0.828 0 1.5 0.672 1.5 1.5s-0.672 1.5-1.5 1.5z"></path>
<path fill="#484848" d="M34.5 33h-21c-0.828 0-1.5-0.672-1.5-1.5s0.672-1.5 1.5-1.5h21c0.828 0 1.5 0.672 1.5 1.5s-0.672 1.5-1.5 1.5z"></path>
<path fill="#484848" d="M34.5 27h-21c-0.828 0-1.5-0.672-1.5-1.5s0.672-1.5 1.5-1.5h21c0.828 0 1.5 0.672 1.5 1.5s-0.672 1.5-1.5 1.5z"></path>
</svg>

<svg xmlns="http://www.w3.org/2000/svg" viewBox="0 0 48 48" class="v-icon"><path fill="#484848" d="M43.022 10.738c-1.04-1.42-2.493-3.08-4.086-4.674s-3.254-3.045-4.674-4.086C31.844.205 30.672 0 30 0H6.75A3.754 3.754 0 0 0 3 3.75v40.5A3.754 3.754 0 0 0 6.75 48h34.5A3.754 3.754 0 0 0 45 44.25V15c0-.672-.205-1.845-1.978-4.262zm-6.208-2.552c1.44 1.44 2.57 2.737 3.402 3.814H33V4.784c1.076.833 2.375 1.963 3.813 3.402zM42 44.25a.76.76 0 0 1-.75.75H6.75a.76.76 0 0 1-.75-.75V3.75A.76.76 0 0 1 6.75 3H30v10.5a1.5 1.5 0 0 0 1.5 1.5H42v29.25z"/><path fill="#484848" d="M34.5 39h-21a1.5 1.5 0 0 1 0-3h21a1.5 1.5 0 0 1 0 3zM34.5 33h-21a1.5 1.5 0 0 1 0-3h21a1.5 1.5 0 0 1 0 3zM34.5 27h-21a1.5 1.5 0 0 1 0-3h21a1.5 1.5 0 0 1 0 3z"/></svg>
